myapp/img/icons/cart.svg

<svg width="30" height="30" viewBox="0 0 30 30" fill="none" xmlns="http://www.w3.org/2000/svg">
<g clip-path="url(#clip0)">
<path d="M9.72656 19.3949H25.6057C25.9989 19.3949 26.3438 19.1349 26.4503 18.7572L29.9661 6.45233C30.0417 6.18706 29.9899 5.9021 29.8235 5.68169C29.6569 5.46196 29.3978 5.33218 29.1213 5.33218H7.69753L7.06924 2.50504C6.97998 2.10243 6.62292 1.81656 6.21094 1.81656H0.878906C0.393219 1.81656 0 2.20978 0 2.69547C0 3.18138 0.393219 3.57437 0.878906 3.57437H5.50552L8.67943 17.8566C7.74559 18.2626 7.08984 19.1921 7.08984 20.2738C7.08984 21.7277 8.27271 22.9105 9.72656 22.9105H25.6057C26.0916 22.9105 26.4846 22.5175 26.4846 22.0316C26.4846 21.5459 26.0916 21.1527 25.6057 21.1527H9.72656C9.24248 21.1527 8.84766 20.7588 8.84766 20.2738C8.84766 19.7888 9.24248 19.3949 9.72656 19.3949Z" fill="white"/>
<path d="M8.84753 25.5469C8.84753 27.001 10.0304 28.1837 11.4845 28.1837C12.9383 28.1837 14.1212 27.001 14.1212 25.5469C14.1212 24.0931 12.9383 22.9102 11.4845 22.9102C10.0304 22.9102 8.84753 24.0931 8.84753 25.5469Z" fill="white"/>
<path d="M21.2108 25.5469C21.2108 27.001 22.3937 28.1837 23.8475 28.1837C25.3016 28.1837 26.4843 27.001 26.4843 25.5469C26.4843 24.0931 25.3016 22.9102 23.8475 22.9102C22.3937 22.9102 21.2108 24.0931 21.2108 25.5469Z" fill="white"/>
</g>
<defs>
<clipPath id="clip0">
<rect width="30" height="30" fill="white"/>
</clipPath>
</defs>
</svg>

<svg id="cart" viewBox="0 0 30 30" xmlns="http://www.w3.org/2000/svg"><g><path d="M9.727 19.395h15.879c.393 0 .738-.26.844-.638l3.516-12.305a.878.878 0 00-.845-1.12H7.698l-.629-2.827a.879.879 0 00-.858-.688H.879a.879.879 0 100 1.757h4.627l3.173 14.283a2.638 2.638 0 00-1.59 2.417 2.64 2.64 0 002.638 2.636h15.879a.878.878 0 100-1.757H9.726a.88.88 0 010-1.758zM8.848 25.547a2.64 2.64 0 002.636 2.637 2.64 2.64 0 002.637-2.637 2.64 2.64 0 00-2.636-2.637 2.64 2.64 0 00-2.637 2.637zM21.21 25.547a2.64 2.64 0 002.637 2.637 2.64 2.64 0 002.637-2.637 2.64 2.64 0 00-2.637-2.637 2.64 2.64 0 00-2.636 2.637z"/></g></svg>
